packages/vibrant-icons/assets/icons/Keyboard/Fill.svg

<svg width="24" height="24" viewBox="0 0 24 24" fill="none" xmlns="http://www.w3.org/2000/svg">
<path fill-rule="evenodd" clip-rule="evenodd" d="M0.899902 3.65088C0.899902 3.51281 1.01183 3.40088 1.1499 3.40088H22.8499C22.988 3.40088 23.0999 3.51281 23.0999 3.65088V20.349C23.0999 20.4871 22.988 20.599 22.8499 20.599H1.1499C1.01183 20.599 0.899902 20.4871 0.899902 20.349V3.65088ZM6.375 7.5H4.625V9.25H6.375V7.5ZM4.625 11.25H6.375V13H4.625V11.25ZM6.375 15H4.625V16.75H6.375V15ZM7.875 7.5H9.625V9.25H7.875V7.5ZM9.625 11.25H7.875V13H9.625V11.25ZM7.875 15H16.125V16.75H7.875V15ZM12.875 7.5H11.125V9.25H12.875V7.5ZM11.125 11.25H12.875V13H11.125V11.25ZM16.125 7.5H14.375V9.25H16.125V7.5ZM14.375 11.25H16.125V13H14.375V11.25ZM19.375 7.5H17.625V9.25H19.375V7.5ZM17.625 11.25H19.375V13H17.625V11.25ZM19.375 15H17.625V16.75H19.375V15Z" fill="#0C0C0C"/>
</svg>

<svg xmlns="http://www.w3.org/2000/svg" width="24" height="24" fill="none"><path fill="#0C0C0C" fill-rule="evenodd" d="M.9 3.65a.25.25 0 0 1 .25-.25h21.7a.25.25 0 0 1 .25.25v16.7a.25.25 0 0 1-.25.25H1.15a.25.25 0 0 1-.25-.25zM6.375 7.5h-1.75v1.75h1.75zm-1.75 3.75h1.75V13h-1.75zM6.375 15h-1.75v1.75h1.75zm1.5-7.5h1.75v1.75h-1.75zm1.75 3.75h-1.75V13h1.75zM7.875 15h8.25v1.75h-8.25zm5-7.5h-1.75v1.75h1.75zm-1.75 3.75h1.75V13h-1.75zm5-3.75h-1.75v1.75h1.75zm-1.75 3.75h1.75V13h-1.75zm5-3.75h-1.75v1.75h1.75zm-1.75 3.75h1.75V13h-1.75zm1.75 3.75h-1.75v1.75h1.75z" clip-rule="evenodd"/></svg>
